X:1
T:Sailor's Bonnet, The
R:reel
D:Michael Coleman
D:Davy Spillane: Shadow Hunter
D:Bothy Band: 1975
Z:id:hn-reel-205
M:C|
K:D
A2FA df~f2|dfef dB~B2|A2FA dffe|dBAG FDDB|
A2FA df~f2|afef dB~B2|A2FA dffe|dBAG FDD2||
|:a2~a2 afdf|afef dB~B2|fbba bafa|bfaf feef|
bf~f2 af~f2|afef dB~B2|A2FA dffe|1 dBAF ADD2:|2 dBAF ADDB||
"Variations:"
A2FA dfef|df (3efe dB~B2|A2FA defe|dBAG FD~D2|
A2FA df~f2|afgf efdB|(3ABA FA defe|dBAG FD~D2||
|:~a3z afdf|afef dB~B2|fbba babc'|d'c'ba feef|
bf~f2 af~f2|afef efdB|(3ABA FA defe|1 dBAF ADD2:|2 dBAF ADD2||

